packages/foundations/assets/icons/functional/images/audio & video/fast_forward_30_16.svg

<svg width="16" height="16" viewBox="0 0 16 16" fill="none" xmlns="http://www.w3.org/2000/svg">
<g clip-path="url(#clip0_184_299)">
<path fill-rule="evenodd" clip-rule="evenodd" d="M3.23701 12.3124C3.75201 12.3124 4.06501 11.8754 4.06501 11.5474C4.06501 11.1724 3.47101 10.2674 3.47101 9.25139C3.47101 7.09639 5.11101 5.47239 7.11001 5.28539L6.56301 5.80039C6.43801 5.95639 6.32901 6.16039 6.32901 6.36239C6.32901 6.76839 6.70401 7.12839 7.12501 7.12839C7.33811 7.13076 7.54384 7.05048 7.69901 6.90439L9.44101 5.14839C9.58305 4.99462 9.65979 4.79167 9.65501 4.58239C9.65537 4.48627 9.63624 4.39107 9.59877 4.30256C9.5613 4.21404 9.50627 4.13404 9.43701 4.06739L7.67101 2.28739C7.60067 2.21327 7.516 2.15421 7.42214 2.11382C7.32828 2.07342 7.22719 2.05252 7.12501 2.05239C6.91422 2.05344 6.71237 2.13764 6.56331 2.2867C6.41426 2.43575 6.33006 2.6376 6.32901 2.84839C6.32901 3.05139 6.40701 3.23839 6.56301 3.39539L6.92301 3.75539C5.55412 3.88154 4.28201 4.51547 3.35704 5.53242C2.43206 6.54938 1.92121 7.87571 1.92501 9.25039C1.92501 10.3604 2.34701 12.3124 3.23701 12.3124ZM7.05501 8.27939C8.06401 8.27939 8.79501 8.94139 8.79501 9.85239C8.79501 10.1824 8.62701 10.4724 8.29101 10.7194C8.75101 10.9754 9.02901 11.3654 9.02901 11.8244C9.02901 13.7934 6.62701 13.9084 5.83901 13.9474H5.80001C5.59394 13.9523 5.39435 13.8751 5.24517 13.7329C5.1713 13.6625 5.11203 13.5782 5.07073 13.4848C5.02944 13.3915 5.00694 13.2909 5.00451 13.1889C5.00208 13.0869 5.01977 12.9853 5.05657 12.8901C5.09338 12.7949 5.14857 12.7079 5.21901 12.6341C5.36125 12.4849 5.55694 12.3983 5.76301 12.3934C6.88601 12.3394 7.47301 12.1734 7.47301 11.9014C7.47301 11.7914 7.40401 11.6714 7.25601 11.6714C6.85201 11.6714 6.69601 11.8064 6.45301 11.8064C6.25186 11.7992 6.06117 11.715 5.92044 11.5711C5.7797 11.4272 5.69971 11.2347 5.69701 11.0334C5.69701 10.7004 5.94001 10.4074 6.29901 10.3334C6.89501 10.2124 7.26301 10.0734 7.26301 9.96139C7.26301 9.90239 7.19101 9.83439 7.02101 9.83439C6.55101 9.83439 6.25901 10.1344 5.89401 10.1344C5.49801 10.1344 5.13601 9.78139 5.13601 9.35539C5.13648 9.21062 5.17724 9.06885 5.25371 8.94593C5.33018 8.82301 5.43936 8.72379 5.56901 8.65939C6.09601 8.39939 6.56901 8.27939 7.05501 8.27939ZM11.92 8.33039C13.2 8.33039 14.075 9.23639 14.075 10.6264V11.5004C14.075 12.9064 13.169 13.8124 11.842 13.8124C10.639 13.8124 9.76501 12.8904 9.76501 11.5324V10.5634C9.76501 9.23639 10.671 8.33039 11.92 8.33039ZM11.905 9.88839C11.561 9.89739 11.326 9.98539 11.326 10.5484V11.5314C11.326 12.0784 11.498 12.2454 11.92 12.2374C12.295 12.2304 12.498 12.0474 12.498 11.4854V10.6104C12.498 9.95439 12.186 9.88139 11.905 9.88839Z" fill="#1A1C1F"/>
</g>
<defs>
<clipPath id="clip0_184_299">
<rect width="16" height="16" fill="white"/>
</clipPath>
</defs>
</svg>

<svg xmlns="http://www.w3.org/2000/svg" width="16" height="16" fill="none"><g clip-path="url(#a)"><path fill="#1A1C1F" fill-rule="evenodd" d="M3.237 12.312c.515 0 .828-.437.828-.765 0-.375-.594-1.28-.594-2.296 0-2.155 1.64-3.779 3.639-3.966l-.547.515c-.125.156-.234.36-.234.562 0 .406.375.766.796.766a.82.82 0 0 0 .574-.224l1.742-1.756a.81.81 0 0 0 .158-.845.7.7 0 0 0-.162-.236l-1.766-1.78a.75.75 0 0 0-.546-.235.8.8 0 0 0-.796.796c0 .203.078.39.234.547l.36.36A5.503 5.503 0 0 0 1.925 9.25c0 1.11.422 3.062 1.312 3.062M7.055 8.28c1.009 0 1.74.662 1.74 1.573q0 .496-.504.867c.46.256.738.646.738 1.105 0 1.97-2.402 2.084-3.19 2.123H5.8a.777.777 0 0 1-.037-1.554c1.123-.054 1.71-.22 1.71-.492 0-.11-.069-.23-.217-.23-.404 0-.56.135-.803.135a.784.784 0 0 1-.756-.773c0-.333.243-.626.602-.7.596-.12.964-.26.964-.372 0-.059-.072-.127-.242-.127-.47 0-.762.3-1.127.3-.396 0-.758-.353-.758-.779a.78.78 0 0 1 .433-.696c.527-.26 1-.38 1.486-.38m4.865.051c1.28 0 2.155.906 2.155 2.296v.874c0 1.406-.906 2.312-2.233 2.312-1.203 0-2.077-.922-2.077-2.28v-.969c0-1.327.906-2.233 2.155-2.233m-.015 1.558c-.344.01-.579.097-.579.66v.983c0 .547.172.714.594.706.375-.007.578-.19.578-.752v-.875c0-.656-.312-.729-.593-.722" clip-rule="evenodd"/></g><defs><clipPath id="a"><path fill="#fff" d="M0 0h16v16H0z"/></clipPath></defs></svg>
